X:13035
T:March of the Concertinas
R:Jig
C:Alan Day, 2014
O:England
Z:Paul Hardy's Session Tunebook 2015 (see www.paulhardy.net). Creative Commons cc by-nc-sa licenced.
M:2/4
L:1/8
Q:1/4=100
K:G
zBAB|"G"G2 D2|"Em"E BAB|"G"G2 D2|"C"E2 DC|"G"B,DGA|B2 AG|"D"A2 A/A/A|A BAB|
"G"G2 D2|"Em"E BAB|"G"G2 B2|"Am"c2 BA|"G"d2 G2|"D"BAGF|"G"G2 G/G/G|G2 FG||
"D"A2 A2|"G"B2 B2|"Am"c2 A2|"D"F2 D2|A2 A/A/A|"G"B2 G2|"D"d4-|d BAB|
"G"G2 D2|"Em"E BAB|"G"G2 B2|"Am"c2 BA|"G"d2 G2|"D"BAGF|"G"G4|]

